X:1
T:[ID 4-5rb]
T:[ID 4-5rb]
T:Bezeichnung standardisiert: Menuett Menuet
T:Urheber unbekannt Datum in der hier transkribierten schriftlichen Quelle: 1792
C:Urheber unbekannt
C:Datum in der hier transkribierten schriftlichen Quelle: 1792
L:1/8
M:3/4
K:C
V:1 treble 
V:1
 c4 (3efg | B2 B2 B2 | c3 BcA | G2 G2 G2 | A2 A2 A2 | G2 G2 G2 | c2 e2 ge | d4 c2 :: f2 d2 BG | %9
 cBcd c2 | f2 d2 BG | cBcd cA | G2 G2 cA | G2 G2 e2 | f2 d2 BG | d4 c2 :| %16

